build/img-landing/svg/cap7.svg

<svg width="78" height="78" viewBox="0 0 78 78" fill="none" xmlns="http://www.w3.org/2000/svg">
<path d="M67.7004 24.6811C68.7053 12.4975 58.7824 3.07727 47.7294 3.07727C41.0724 3.07727 34.7922 6.4686 31.0241 11.9952C20.2221 7.09654 10.9276 16.0145 11.3044 24.43C5.02416 25.0579 0 30.4589 0 36.9904C0 43.8985 5.6521 49.5508 12.5604 49.5508H18.8406V47.0387H12.5604C7.66189 47.0387 2.51208 43.2706 2.51208 36.9904C2.51208 29.4541 9.54588 26.3141 14.0676 26.942C12.1836 15.2609 24.3671 9.60877 32.029 15.3865C32.029 15.3865 36.802 5.58951 47.855 5.58951C57.5266 5.58951 67.4492 14.3818 65.0628 26.8165C65.0628 26.8165 75.4879 27.4445 75.4879 36.9905C75.4879 42.2658 70.9662 47.0388 65.4396 47.0388H59.1594V49.5509H65.4396C72.3477 49.5509 78 43.8988 78 36.9905C77.8743 30.8357 73.6038 25.8117 67.7004 24.6811Z" fill="#E30613"/>
<path d="M38.9372 24.0532C29.8938 30.3334 22.6087 31.3383 18.8406 32.0919V34.9807C18.8406 62.488 38.9372 74.9227 38.9372 74.9227C38.9372 74.9227 58.6571 62.8648 59.0339 34.9807V32.0919C46.4733 29.8309 40.6956 25.1836 38.9372 24.0532ZM21.3527 34.227C21.3527 34.227 28.6378 32.8453 34.541 29.8309L21.9806 42.3913C21.3527 39.7536 21.3527 34.227 21.3527 34.227ZM22.483 45.4057L39.942 27.8211C41.8259 28.9515 43.7101 30.0821 45.7197 30.9612L24.4927 52.1883C23.6134 49.9276 22.9855 47.6666 22.483 45.4057ZM25.4976 54.7004L48.3574 31.9662C50.9952 33.0966 55.2656 33.9758 55.2656 33.9758L28.6376 60.4782C27.5072 58.5942 26.5023 56.7101 25.4976 54.7004ZM38.9372 71.7825C37.9323 71.029 36.9276 70.1497 35.9227 69.1448L53.6328 51.4347C50.6184 59.5989 45.5942 66.6329 38.9372 71.7825ZM55.1401 46.2849L34.1642 67.3865C32.657 65.8793 31.401 64.2465 30.1449 62.488L56.5218 36.1111C56.3961 39.6279 56.0193 43.0193 55.1401 46.2849Z" fill="#E30613"/>
</svg>

<svg width="78" height="78" viewBox="0 0 78 78" fill="none" xmlns="http://www.w3.org/2000/svg"><path d="M67.7 24.681c1.005-12.184-8.918-21.604-19.97-21.604-6.658 0-12.938 3.392-16.706 8.918-10.802-4.898-20.096 4.02-19.72 12.435C5.024 25.058 0 30.459 0 36.99c0 6.908 5.652 12.56 12.56 12.56h6.28v-2.51h-6.28c-4.898 0-10.048-3.768-10.048-10.049 0-7.536 7.034-10.676 11.556-10.048-1.884-11.681 10.3-17.333 17.961-11.556 0 0 4.773-9.796 15.826-9.796 9.672 0 19.594 8.792 17.208 21.227 0 0 10.425.628 10.425 10.173 0 5.276-4.522 10.049-10.048 10.049h-6.28v2.512h6.28c6.908 0 12.56-5.652 12.56-12.56-.126-6.155-4.396-11.18-10.3-12.31z" fill="#E30613"/><path d="M38.937 24.053c-9.043 6.28-16.328 7.285-20.096 8.039v2.889c0 27.507 20.096 39.942 20.096 39.942s19.72-12.058 20.097-39.942v-2.89c-12.56-2.26-18.338-6.907-20.097-8.038zM21.353 34.227s7.285-1.382 13.188-4.396l-12.56 12.56c-.628-2.637-.628-8.164-.628-8.164zm1.13 11.179L39.942 27.82c1.884 1.13 3.768 2.261 5.778 3.14L24.493 52.188c-.88-2.26-1.508-4.521-2.01-6.782zm3.015 9.294l22.86-22.734c2.637 1.13 6.908 2.01 6.908 2.01L28.638 60.478c-1.13-1.884-2.136-3.768-3.14-5.778zm13.44 17.082a28.276 28.276 0 0 1-3.015-2.637l17.71-17.71c-3.015 8.164-8.039 15.198-14.696 20.347zM55.14 46.285L34.164 67.387c-1.507-1.508-2.763-3.14-4.02-4.899l26.378-26.377c-.126 3.517-.503 6.908-1.382 10.174z" fill="#E30613"/></svg>
